assets/icons/24px/outline/tray-24px.svg

<svg width="24" height="24" viewBox="0 0 24 24" fill="none" xmlns="http://www.w3.org/2000/svg">
<path d="M3 14V11.3333C3 10.6725 3 10.3421 3.10263 10.0342C3.20527 9.72631 3.40351 9.46199 3.8 8.93333L6.3 5.6C6.88885 4.81486 7.18328 4.42229 7.60557 4.21115C8.02786 4 8.51858 4 9.5 4H14.5C15.4814 4 15.9721 4 16.3944 4.21115C16.8167 4.42229 17.1111 4.81486 17.7 5.6L20.2 8.93333C20.5965 9.46199 20.7947 9.72631 20.8974 10.0342C21 10.3421 21 10.6725 21 11.3333V14" stroke="white" stroke-width="2"/>
<path d="M3 12H6H7.54648C7.96619 12 8.17604 12 8.37881 12.0425C8.44818 12.057 8.51672 12.0752 8.58416 12.097C8.78128 12.1607 8.96348 12.2648 9.32789 12.4731V12.4731C10.4807 13.1318 11.0571 13.4612 11.6817 13.5278C11.8933 13.5504 12.1067 13.5504 12.3183 13.5278C12.9429 13.4612 13.5193 13.1318 14.6721 12.4731V12.4731C15.0365 12.2648 15.2187 12.1607 15.4158 12.097C15.4833 12.0752 15.5518 12.057 15.6212 12.0425C15.824 12 16.0338 12 16.4535 12H18H21V16C21 17.8856 21 18.8284 20.4142 19.4142C19.8284 20 18.8856 20 17 20H7C5.11438 20 4.17157 20 3.58579 19.4142C3 18.8284 3 17.8856 3 16V12Z" stroke="white" stroke-width="2"/>
</svg>

<svg width="24" height="24" fill="none" xmlns="http://www.w3.org/2000/svg"><path d="M3 14v-2.667c0-.66 0-.99.103-1.299.102-.308.3-.572.697-1.1L6.3 5.6c.589-.785.883-1.178 1.306-1.389C8.028 4 8.519 4 9.5 4h5c.981 0 1.472 0 1.894.211.423.211.717.604 1.306 1.389l2.5 3.333c.396.529.595.793.697 1.101.103.308.103.638.103 1.3V14" stroke="#fff" stroke-width="2"/><path d="M3 12h4.546c.42 0 .63 0 .833.043.07.014.138.032.205.054.197.064.38.168.744.376 1.153.659 1.73.988 2.354 1.055.211.022.425.022.636 0 .625-.067 1.201-.396 2.354-1.055.364-.208.547-.312.744-.376.067-.022.136-.04.205-.054.203-.043.413-.043.832-.043H21v4c0 1.886 0 2.828-.586 3.414C19.828 20 18.886 20 17 20H7c-1.886 0-2.828 0-3.414-.586C3 18.828 3 17.886 3 16v-4z" stroke="#fff" stroke-width="2"/></svg>
